svg/fluentui-system-icons/ic_fluent_shield_32_regular.svg

<svg width="32" height="32" viewBox="0 0 32 32" fill="none" xmlns="http://www.w3.org/2000/svg">
<path d="M15.4453 2.16795C15.7812 1.94402 16.2188 1.94402 16.5547 2.16795C19.4707 4.11195 23.3149 6.0265 28.0995 6.50496C28.6107 6.55608 29 6.98625 29 7.5V16C29 19.8796 26.8761 23.1691 24.2989 25.5462C21.7274 27.9179 18.5623 29.517 16.1843 29.9629L16 29.9974L15.8157 29.9629C13.4377 29.517 10.2726 27.9179 7.70115 25.5462C5.12389 23.1691 3 19.8796 3 16V7.5C3 6.98625 3.38929 6.55608 3.9005 6.50496C8.68509 6.0265 12.5293 4.11195 15.4453 2.16795ZM5 8.38831V16C5 19.1204 6.71495 21.9157 9.05712 24.076C11.3319 26.1742 14.0638 27.5451 16 27.9601C17.9362 27.5451 20.6681 26.1742 22.9429 24.076C25.285 21.9157 27 19.1204 27 16V8.38831C22.5038 7.7717 18.8344 6.00808 16 4.19443C13.1656 6.00808 9.49618 7.7717 5 8.38831Z" fill="#212121"/>
</svg>

<svg xmlns="http://www.w3.org/2000/svg" width="32" height="32"><path d="M15.445 2.168a1 1 0 0 1 1.11 0c2.916 1.944 6.76 3.859 11.544 4.337A1 1 0 0 1 29 7.5V16c0 3.88-2.124 7.17-4.701 9.546-2.572 2.372-5.737 3.971-8.115 4.417l-.184.034-.184-.034c-2.378-.446-5.543-2.045-8.115-4.417C5.124 23.17 3 19.88 3 16V7.5a1 1 0 0 1 .9-.995c4.785-.478 8.63-2.393 11.545-4.337ZM5 8.388V16c0 3.12 1.715 5.916 4.057 8.076 2.275 2.098 5.007 3.47 6.943 3.884 1.936-.415 4.668-1.786 6.943-3.884C25.285 21.916 27 19.12 27 16V8.388c-4.496-.616-8.166-2.38-11-4.194-2.834 1.814-6.504 3.578-11 4.194Z"/></svg>
